X:1
T: The Shevock
C:
R:Strathspey
Q: 128
K:G
M:4/4
L:1/16
|:DG3 G3B A3B c3A|Bc3 d3e c6 d2|B3G A3B A4 E3G|F3E FG3 A4 D4|
DG3 G3B A3B ((3c2B2A2) |Bd3 e3d c4 d3c|B3G A3B A3G E3G|F4 A4 G4 B3c|
d4 g3a f3e d3c|Be3 B3A B4 ((3G2A2B2) |c4 c3d B3c dB3|A4 e4 d4 e3f|
g4 e3g f3e d3c|B3c BA3 G4 =F4|E3F G3E F3G A3F|D4 A4 G4:|
